X: 012
T: the Capacheen
C: unknown
O: Norfolk, England
R: jig
N: Norfolk Museums Service
N: MS with "scribble John Brown His Book 16 November 1785" on 1st page
N: There's a 2nd unclear name: Robert Jas Goff/Goffe/Suff/Soffe.
F: https://www.eatmt.org.uk/alan-flos-musings-on-a-norfolk-tune-book/
F: https://www.eatmt.org.uk/wp-content/uploads/2021/03/SCN0939-2.jpg (page 1 of the MS)
Z: 2021-06-25 John Chambers <jc:trillian.mit.edu>
N: The 2nd strain has initial repeat but no final repeat symbol.  Not fixed.
M: 6/8
L: 1/8
K: D
% - - - - - - - - - -
|:\
(ABc) dcd | e2e efg | f2d d2f | ecA A2A ||\
d2d dcd | e2e efg | fdf edc | d3- d3 :|
|:\
f2f fdf | g2g geg | f2f fdf | ecA A2A ||\
f2f fdf | g2g geg | fdf edc | d3- d3 |]
